uiw/usergroup-add.svg

<svg xmlns="http://www.w3.org/2000/svg" viewBox="0 0 20 20" height="1em" width="1em">
  <path fill="#555" d="M12.3463805,11.1013364 C13.2265567,11.1013364 14.0874144,11.2471388 14.9012279,11.5291825 C15.2643672,11.6550359 15.4547893,12.04596 15.3265475,12.402336 C15.1983057,12.7587121 14.7999626,12.9455876 14.4368233,12.8197343 C13.7716638,12.5892097 13.0678099,12.4699988 12.3463805,12.4699988 C8.88031555,12.4699988 6.07051471,15.2274683 6.07051471,18.6289795 C6.07051471,18.8367718 6.0809751,19.0431943 6.10174374,19.247776 C6.13992287,19.6238599 5.860211,19.95911 5.47698981,19.996578 C5.09376861,20.0340461 4.75215616,19.7595437 4.71397703,19.3834599 C4.68863298,19.133808 4.67587786,18.8821019 4.67587786,18.6289795 C4.67587786,14.471577 8.11007889,11.1013364 12.3463805,11.1013364 Z M16.4921784,12.469798 C16.8736887,12.4715456 17.1873616,12.7822656 17.1927866,13.1638104 L17.192,15.423 L19.3059875,15.4180829 C19.6528465,15.4230146 19.9411725,15.6826968 19.9920418,16.0165053 L20,16.118691 C20.0017477,16.5002013 19.6938612,16.8050788 19.3123163,16.7996538 L19.3123163,16.7996538 L17.192,16.804 L17.1927866,19.1743938 C17.1982115,19.5559386 16.893334,19.8638251 16.5118238,19.8620775 C16.1303135,19.8603298 15.8166405,19.5496098 15.8112156,19.168065 L15.811,16.807 L13.301733,16.8139931 C12.954874,16.8090613 12.666548,16.5493791 12.6156787,16.2155706 L12.6077205,16.1133849 C12.6059728,15.7318746 12.9138593,15.4269972 13.2954042,15.4324221 L13.2954042,15.4324221 L15.811,15.426 L15.8112156,13.1574816 C15.8057907,12.7759368 16.1106681,12.4680503 16.4921784,12.469798 Z M7.67050268,8.21990587 C8.05562101,8.21990587 8.36782111,8.52629138 8.36782111,8.90423706 C8.36782111,9.28218274 8.05562101,9.58856825 7.67050268,9.58856825 C4.20443769,9.58856825 1.39463685,12.3460378 1.39463685,15.7475489 C1.39463685,15.9553413 1.40509723,16.1617638 1.42586588,16.3663455 C1.464045,16.7424294 1.18433314,17.0776795 0.801111945,17.1151475 C0.41789075,17.1526156 0.0762782936,16.8781132 0.0380991673,16.5020293 C0.0127551123,16.2523775 0,16.0006714 0,15.7475489 C0,11.5901465 3.43420103,8.21990587 7.67050268,8.21990587 Z M12.6092723,2.96635395 C14.7916095,2.96635395 16.5607434,4.7025385 16.5607434,6.84423068 C16.5607434,8.98592286 14.7916095,10.7221074 12.6092723,10.7221074 C10.4269351,10.7221074 8.65780123,8.98592286 8.65780123,6.84423068 C8.65780123,4.7025385 10.4269351,2.96635395 12.6092723,2.96635395 Z M12.6092723,4.33501632 C11.1971718,4.33501632 10.0524381,5.45842986 10.0524381,6.84423068 C10.0524381,8.2300315 11.1971718,9.35344503 12.6092723,9.35344503 C14.0213729,9.35344503 15.1661065,8.2300315 15.1661065,6.84423068 C15.1661065,5.45842986 14.0213729,4.33501632 12.6092723,4.33501632 Z M8.02481396,0 C9.26971966,0 10.4198525,0.56958919 11.1625902,1.52057247 C11.3968713,1.82054038 11.3390068,2.25009761 11.0333461,2.4800154 C10.7276854,2.70993319 10.289976,2.65314634 10.0556948,2.35317843 C9.57412927,1.73659357 8.83119077,1.36866238 8.02481396,1.36866238 C6.6127134,1.36866238 5.46797973,2.49207591 5.46797973,3.87787673 C5.46797973,5.08986403 6.35031358,6.12282783 7.5489833,6.34384426 C7.92747905,6.41363311 8.17666175,6.77132498 8.10554845,7.14277141 C8.03443515,7.51421785 7.669955,7.75875964 7.29145926,7.68897079 C5.43632189,7.34691172 4.07334288,5.75124816 4.07334288,3.87787673 C4.07334288,1.73618455 5.84247674,0 8.02481396,0 Z"/>
</svg>

<svg xmlns="http://www.w3.org/2000/svg" viewBox="0 0 20 20" height="1em" width="1em">
  <path fill="#555" d="M12.346 11.101c.88 0 1.741.146 2.555.428a.681.681 0 0 1 .426.873.7.7 0 0 1-.89.418 6.372 6.372 0 0 0-2.09-.35c-3.467 0-6.276 2.757-6.276 6.159 0 .208.01.414.03.619a.688.688 0 0 1-.624.749.694.694 0 0 1-.763-.614 7.469 7.469 0 0 1-.038-.754c0-4.157 3.434-7.528 7.67-7.528Zm4.146 1.369a.707.707 0 0 1 .7.694v2.259l2.114-.005a.707.707 0 0 1 .686.599l.008.102a.675.675 0 0 1-.688.68l-2.12.005v2.37a.674.674 0 0 1-.68.688.707.707 0 0 1-.7-.694l-.001-2.361-2.51.007a.707.707 0 0 1-.685-.598l-.008-.103a.675.675 0 0 1 .687-.68l2.516-.007v-2.269a.675.675 0 0 1 .681-.687ZM7.671 8.22a.69.69 0 0 1 .697.684.69.69 0 0 1-.697.685c-3.467 0-6.276 2.757-6.276 6.159 0 .207.01.414.03.618a.688.688 0 0 1-.624.75.694.694 0 0 1-.763-.614A7.469 7.469 0 0 1 0 15.748C0 11.59 3.434 8.22 7.67 8.22Zm4.938-5.254c2.183 0 3.952 1.737 3.952 3.878 0 2.142-1.77 3.878-3.952 3.878S8.658 8.986 8.658 6.844c0-2.141 1.769-3.878 3.951-3.878Zm0 1.369c-1.412 0-2.557 1.123-2.557 2.51 0 1.385 1.145 2.508 2.557 2.508s2.557-1.123 2.557-2.509-1.145-2.509-2.557-2.509ZM8.025 0c1.245 0 2.395.57 3.138 1.52.234.3.176.73-.13.96a.706.706 0 0 1-.977-.127 2.568 2.568 0 0 0-2.031-.984c-1.412 0-2.557 1.123-2.557 2.509 0 1.212.882 2.245 2.081 2.466.378.07.628.427.557.799a.697.697 0 0 1-.815.546c-1.855-.342-3.218-1.938-3.218-3.811C4.073 1.736 5.843 0 8.025 0Z"/>
</svg>
